X: 672
T: Da suanzao
L: 1/8
M: 2/4
K: D
A B/ A/F2 [I:setbarnb 1]| 
d f e f | 
A d B A | 
F EF2 | 
e de2 | 
f e/ d/A2 | 
d e/ d/ B/ A/ F | 
A4 |]

@@@ Tune index: 9546
